!!!!SEGMENT: pl-kj--bj-muz-6275-iv--002_zelenski-wladyslaw--piesni-z-muzyka-op-26-dzieje-serca.krn
!!!cenid: 18xx:3706
!!!COM: Żeleński, Władysław
!!!COM-rismID: pe41024455
!!!CDT:
!!!CNT:
!!!GTL: Pieśni z muzyką op. 26
!!!OTL: Dzieje serca
!!!PDT: 1880
!!!AGN:
!!!SMS-siglum: PL-Kj
!!!SMS-shelfmark: BJ Muz. 6275 IV
!!!SMS-shelfwork: 002 G
!!!SMS-variant:
!!!SMS-altvar:
!!!NIFC-rismSourceID:
!!!NIFC-islandoraID:
!!!URL-pdf-islandora:
!!!URL-scan: https://polona.pl/item/z-teki-jozefa-koscielskiego-piesni-z-muzyka-op-26,Nzg3MjQzMDY/0/#info:metadata @EN{Scan on Polona} @PL{Skany w portalu Polona}
!!!ONB-nifc:
!!!AIN: 1 empty 1 forte
!!!key:
**kern	**kern	**dynam	**kern	**text	**dynam
*part2	*part2	*part2	*part1	*part1	*part1
*staff3	*staff2	*	*staff1	*staff1	*
*Iforte	*Iempty	*	*Iempty	*	*
*I"Fortepian.	*	*	*I"Śpiew.	*	*
*I'pf	*	*	*I'V	*	*
*ICklav	*	*	*ICvox	*	*
*clefF4	*clefG2	*	*clefG2	*	*
*k[b-]	*k[b-]	*	*k[b-]	*	*
*F:	*F:	*	*F:	*	*
*M4/4	*M4/4	*	*M4/4	*	*
*met(c)	*met(c)	*	*met(c)	*	*
=1	=1	=1	=1	=1	=1
*	*^	*	*	*	*
*	*	*Xtuplet	*	*	*	*
!	!	!	!	!LO:TX:a:t=Allegro moderato.	!	!
(4F\	(4a/	12a\L	p	1r	.	.
.	.	12c\	.	.	.	.
.	.	12f\J	.	.	.	.
4B-\	4g/	12g\L	.	.	.	.
.	.	12c\	.	.	.	.
.	.	12e\J	.	.	.	.
!	!	!	!LO:HP:a	!	!	!
4A\	4cc/	12cc\L	<	.	.	.
.	.	12c\	.	.	.	.
.	.	12f\J	.	.	.	.
4G\	4b-/	12b-\L	.	.	.	.
.	.	12d\	.	.	.	.
.	.	12f\J	.	.	.	.
=2	=2	=2	=2	=2	=2	=2
4d\	4ff/	12ff\L	.	1r	.	.
.	.	12f\	.	.	.	.
.	.	12b-\J	.	.	.	.
4B-\	4dd/	12dd\L	.	.	.	.
.	.	12d\	.	.	.	.
.	.	12f\J	.	.	.	.
4A\	4cc/	12cc\L	.	.	.	.
.	.	12c\	.	.	.	.
.	.	12f\J	.	.	.	.
4G#X\)	4bn/)	12bn\L	.	.	.	.
.	.	12d\	.	.	.	.
.	.	12f\J	.	.	.	.
=3	=3	=3	=3	=3	=3	=3
!	!	!LO:N:vis=3	!	!	!	!
(2.A\	(2cc/	12cc\L	.	1r	.	.
.	.	12c\	.	.	.	.
.	.	12f\J	.	.	.	.
.	.	12c\L	.	.	.	.
.	.	12f\	.	.	.	.
.	.	12c\J	.	.	.	.
!	!	!LO:N:vis=3	!	!	!	!
.	2a/	12a\L	.	.	.	.
.	.	12c#X\	.	.	.	.
.	.	12f\J	.	.	.	.
4F\)	.	12c#\L	.	.	.	.
.	.	12f\	.	.	.	.
.	.	12c#\J	[	.	.	.
!!LO:LB:g=original
=4	=4	=4	=4	=4	=4	=4
*^	*	*	*	*	*	*
!	!	!	!LO:N:vis=3	!	!	!	!
4r	4ryy	2b-/	12b-\L	.	1r	.	.
.	.	.	12d\	.	.	.	.
.	.	.	12f\J	.	.	.	.
(2C/	2.C\	.	12d\L	.	.	.	.
.	.	.	12f\	.	.	.	.
.	.	.	12d\J	.	.	.	.
!	!	!	!	!LO:HP:a	!	!	!
.	.	2g/)	12e\L	>	.	.	.
.	.	.	12c\	.	.	.	.
.	.	.	12e\J	.	.	.	.
4B-/)	.	.	12c\L	.	.	.	.
.	.	.	12e\	.	.	.	.
.	.	.	12c\J	]	.	.	.
*v	*v	*	*	*	*	*	*
=5	=5	=5	=5	=5	=5	=5
!	!	!	!	!	!	!LO:DY:a
8F\ 8A	(4a/	12a\L	pp	4a/	Ran-	p
.	.	12c\	.	.	.	.
8r	.	.	.	.	.	.
.	.	12f\J	.	.	.	.
(4B-\	4g/	12g\L	.	8g/	-kiem	.
.	.	12c\	.	.	.	.
.	.	.	.	8g/	przy	.
.	.	12e\J	.	.	.	.
4A\	4cc/	12cc\L	.	4cc\	zdro-	.
.	.	12c\	<	.	.	.
.	.	12f\J	.	.	.	.
4G\)	4b-/	12b-\L	.	8b-\	-ju	.
.	.	12d\	.	.	.	.
.	.	.	.	8b-\	Uj-	.
.	.	12f\J	[	.	.	.
=6	=6	=6	=6	=6	=6	=6
!	!	!	!	!	!	!LO:DY:a
(4d\	4ff/	12ff\L	.	4ff\	-rza-	<
.	.	12f\	.	.	.	.
.	.	12b-\J	.	.	.	.
4B-\	4dd/	12dd\L	.	4dd\	-łem	.
.	.	12d\	.	.	.	.
.	.	12f\J	.	.	.	.
!	!	!LO:N:vis=3	!	!	!	!
4G\	2b-/)	12b-\L	>	2b-\	ją.	[
.	.	12d\	.	.	.	.
.	.	12f\J	]	.	.	.
4G#X\)	.	12d\L	.	.	.	.
.	.	12f\	.	.	.	.
.	.	12d\J	.	.	.	.
=7	=7	=7	=7	=7	=7	=7
!	!	!	!	!	!	!LO:DY:a
(4A\	(4a/	12a\L	.	4a/	J	p
.	.	12c#X\	.	.	.	.
.	.	12e\J	.	.	.	.
4B-\	4g/	12g\L	.	8g/	w nie-	.
.	.	12d\	.	.	.	.
!	!	!	!	!	!	!LO:DY:a
.	.	.	.	8g/	-po-	<
.	.	12e\J	.	.	.	.
4G\	4b-/	12b-\L	<	4b-\	-ko-	.
.	.	12d\	.	.	.	.
.	.	12e\J	.	.	.	.
4A\	4a/	12a\L	.	8a/	-ju	.
.	.	12d\	.	.	.	.
.	.	.	.	8a/	Już	[
.	.	12e\J	[	.	.	.
!!LO:LB:g=original
=8	=8	=8	=8	=8	=8	=8
!	!	!	!	!	!	!LO:DY:a
2B-\	4g/	12g\L	.	4g/	my-	>
.	.	12d\	.	.	.	.
.	.	12e\J	.	.	.	.
.	4g#X/	12g#\L	>	8f/L	-śli	.
.	.	12d\	.	.	.	.
.	.	.	.	8e/J	.	.
.	.	12e\J	.	.	.	.
!	!	!LO:N:vis=3	!	!	!	!
4A\	2a/)	[[>12a\L	]	2a/	śnią:	]
.	.	12c#X\	.	.	.	.
.	.	12e\J	.	.	.	.
4G\)	.	12c#\L	.	.	.	.
.	.	12e\	.	.	.	.
.	.	12c#\J	.	.	.	.
*	*v	*v	*	*	*	*
=9	=9	=9	=9	=9	=9
*^	*	*	*	*	*
*Xtuplet	*	*	*	*	*	*
!LO:N:vis=3	!	!	!	!	!	!
12F/L	(2F\	8a/]]	.	1r	.	.
12A/	.	.	.	.	.	.
.	.	8r	.	.	.	.
12d/J	.	.	.	.	.	.
!	!	!LO:TX:b:t=dolce	!	!	!	!
12f/L	.	(4aa\	.	.	.	.
12A/	.	.	.	.	.	.
12d/J	.	.	.	.	.	.
!LO:N:vis=3	!	!	!	!	!	!
12G/L	2G\)	4ff\	.	.	.	.
12B-/	.	.	.	.	.	.
12d/J	.	.	.	.	.	.
12f/L	.	4dd\	.	.	.	.
12B-/	.	.	.	.	.	.
12d/J	.	.	.	.	.	.
=10	=10	=10	=10	=10	=10	=10
!LO:N:vis=3	!	!	!	!	!	!
12G#X/L	(2G#\	4cc\	.	1r	.	.
12B-/	.	.	.	.	.	.
12d/J	.	.	.	.	.	.
12f/L	.	4b-\	.	.	.	.
12B-/	.	.	.	.	.	.
12d/J	.	.	.	.	.	.
!LO:N:vis=3	!	!	!	!	!	!
12A/L	2A\)	2a/)	.	.	.	.
12c#X/	.	.	.	.	.	.
12g/J	.	.	.	.	.	.
12f/L	.	.	.	.	.	.
12c#/	.	.	.	.	.	.
12e/J	.	.	.	.	.	.
*v	*v	*	*	*	*	*
=11	=11	=11	=11	=11	=11
*	*^	*	*	*	*
!	!	!LO:N:vis=3	!	!LO:TX:a:t=con espressione	!	!
(2G\	(2b-/	12b-\L	.	4b-\	Ca-	.
.	.	12d\	.	.	.	.
.	.	12f\J	.	.	.	.
.	.	12d\L	.	8a/	-ła	.
.	.	12f\	.	.	.	.
.	.	.	.	8b-\	przy-	.
.	.	12d\J	.	.	.	.
!	!	!LO:N:vis=3	!	!	!	!
2GG/)	2f/)	12f\L	.	4dd\	-ro-	.
.	.	12B-\	.	.	.	.
.	.	12d\J	.	.	.	.
.	.	12B-\L	.	8b-\	-da,	.
.	.	12d\	.	.	.	.
.	.	.	.	8b-\	Jej	.
.	.	12B-\J	.	.	.	.
!!LO:PB:g=original
=12	=12	=12	=12	=12	=12	=12
(2C/	(4a/	12a\L	.	4a/	cza-	.
.	.	12B-\	.	.	.	.
.	.	12f\J	.	.	.	.
.	4g/	12g\L	.	4g/	-rem	.
.	.	12B-\	.	.	.	.
.	.	12e\J	.	.	.	.
2FF/)	4a/)	12a\L	.	2a/	tchnie,	.
.	.	12A\	.	.	.	.
.	.	12c\J	.	.	.	.
.	4r	12f\L	.	.	.	.
.	.	12c\	.	.	.	.
.	.	12f\J	.	.	.	.
=13	=13	=13	=13	=13	=13	=13
!	!	!LO:N:vis=3	!LO:HP:b:t=poco cresc.	!	!	!LO:HP:a:t=poco cresc.
(2G\	(2b-/	12b-\L	<	4b-\	Z jej	<
.	.	12d\	.	.	.	.
.	.	12f\J	.	.	.	.
.	.	12d\L	.	8a/	dro-	.
.	.	12f\	.	.	.	.
.	.	.	.	8b-\	-giem	.
.	.	12d\J	.	.	.	.
!	!	!LO:N:vis=3	!	!	!	!
2C/)	2ee-X/)	12ee-\L	.	4ee-X\	wo-	.
.	.	12e-X\	.	.	.	.
.	.	12b-\J	.	.	.	.
.	.	12e-\L	.	8ee-\	-da	.
.	.	12b-\	.	.	.	.
.	.	.	.	8ee-\	Ob-	.
.	.	12e-\J	.	.	.	.
=14	=14	=14	=14	=14	=14	=14
(2F\	(4dd/	12dd\L	.	4dd\	-li-	.
.	.	12e-X\	.	.	.	.
.	.	12a\J	.	.	.	.
.	4cc#X/	12cc#\L	.	4cc#X\	-czem	.
.	.	12e-\	.	.	.	.
.	.	12a\J	.	.	.	.
2BB-/)	4dd/)	12dd\L	.	4.dd\	mknie.	.
.	.	12d\	.	.	.	.
.	.	12f\J	.	.	.	.
.	4r	12b-\L	.	.	.	.
.	.	12f\	.	.	.	.
.	.	.	.	8dd\	J	.
.	.	12b-\J	.	.	.	.
*	*v	*v	*	*	*	*
!!LO:LB:g=original
=15	=15	=15	=15	=15	=15
*^	*	*	*	*	*
!	!	!	!	!	!	!LO:DY:a
12r	4ryy	8dd\	.	4.dd\	szep-	>
(12B-\L	.	.	.	.	.	.
.	.	8r	.	.	.	.
12d\J	.	.	.	.	.	.
!	!	!LO:TX:b:t=dolce	!	!	!	!
12f\L	4ryy	([4gg^\	.	.	.	.
12d\	.	.	.	.	.	.
.	.	.	.	8g/	-ce	]
12f\J	.	.	.	.	.	.
*	*	*tuplet	*	*	*	*
!LO:N:vis=3	!	!LO:TUP:a	!	!	!	!
12Bn/L	2Bn\	12gg\L]	.	4g/	zdrój.	.
12d/	.	12ff\	.	.	.	.
12f/J	.	12ee\J	.	.	.	.
12d/L	.	8dd\)	.	4r	.	.
12f/	.	.	.	.	.	.
.	.	8r	.	.	.	.
12d/J)	.	.	.	.	.	.
=16	=16	=16	=16	=16	=16	=16
!LO:N:vis=3	!	!	!	!	!	!
(12c/L	2c\	4r	.	8r	.	.
12e/	.	.	.	.	.	.
!	!	!	!	!	!	!LO:DY:a
.	.	.	.	8a/	J	p
12g/J	.	.	.	.	.	.
!	!	!	!	!	!	!LO:DY:a
12e/L	.	([4aa^\	pp	8a/	szep-	<
12g/	.	.	.	.	.	.
.	.	.	.	8a/	-ce	.
12e/J	.	.	.	.	.	.
!LO:N:vis=3	!	!LO:TUP:a	!	!	!	!
12c#X/L	2c#\	12aa\L]	.	4.a/	zdrój,	[
12e/	.	12gg\	.	.	.	.
12g/J	.	12ff\J	.	.	.	.
12e/L	.	8ee\)	.	.	.	.
12g/	.	.	.	.	.	.
.	.	8r	.	8a/	Jam	.
12e/J)	.	.	.	.	.	.
*v	*v	*	*	*	*	*
=17	=17	=17	=17	=17	=17
*	*^	*	*	*	*
*	*	*Xtuplet	*	*	*	*
!	!	!	!	!	!	!LO:HP:a
8d\ 8f	4r	12r	.	2b-\	twój!	<
.	.	12a\L	.	.	.	.
8r	.	.	.	.	.	.
.	.	12b-\J	.	.	.	.
4r	(4gg/	12gg\L	<	.	.	.
.	.	12a\	.	.	.	.
.	.	12b-\J	.	.	.	.
2r	4ff/	12ff\L	.	4r	.	.
.	.	12a\	.	.	.	.
.	.	12b-\J	.	.	.	.
.	4dd/	12dd\L	.	4b-\	Jam	.
.	.	12f\	.	.	.	.
.	.	12b-\J	[	.	.	.
!!LO:LB:g=original
=18	=18	=18	=18	=18	=18	=18
4r	4cc/	12cc\L	.	2.ff^\	twój!	.
.	.	12d\	.	.	.	.
.	.	12f\J	.	.	.	.
(4GG/	4b-/	12b-\L	>	.	.	.
.	.	12d\	.	.	.	.
.	.	12f\J	.	.	.	.
4BB-/	4a/	12a\L	.	.	.	.
.	.	12d\	.	.	.	.
.	.	12f\J	.	.	.	.
4D/)	4g/)	12g\L	]	4r	.	.
.	.	12B-\	.	.	.	.
.	.	12f\J	.	.	.	.
=19	=19	=19	=19	=19	=19	=19
*^	*	*	*	*	*	*
!LO:N:vis=2	!	!	!	!	!	!	!
4C/	[2C\	4a/	12a\L	.	4a/	We	.
.	.	.	12c\	.	.	.	.
.	.	.	12f\J	.	.	.	.
!	!	!	!	!LO:HP:t=cresc. poco a poco	!LO:TX:a:t=piu sonore	!	!
4B-/	.	4g/	12g\L	<	8g/	mnie,	.
.	.	.	12c\	.	.	.	.
.	.	.	.	.	8g/	w o-	.
.	.	.	12e\J	.	.	.	.
4A/	2C\_	4cc/	12cc\L	.	4cc\	-ko-	.
.	.	.	12c\	.	.	.	.
.	.	.	12f\J	.	.	.	.
4G/	.	4b-/	12b-\L	.	8b-\	-ło	.
.	.	.	12d\	.	.	.	.
.	.	.	.	.	8b-\	Roz-	.
.	.	.	12f\J	.	.	.	.
*	*	*v	*v	*	*	*	*
=20	=20	=20	=20	=20	=20	=20
12C/L]	12ryy	6e-X/ 6b- 6ee-X	.	4.ee-X\	-ko-	.
12C/	[6C\	.	.	.	.	.
[<12F#X/J	.	12r	.	.	.	.
2C\] 2F#] 2c	4ryy	12r	.	.	.	.
.	.	(12e-/L	.	.	.	.
.	.	.	.	8a/	-szy	.
.	.	12f#X/J	.	.	.	.
.	2ryy	12a/L	.	2a/	rój!	.
.	.	12cc/	.	.	.	.
.	.	12a/J	.	.	.	.
4r	.	12f#/L	.	.	.	.
.	.	12e-/	.	.	.	.
.	.	12c/J)	.	.	.	.
!!LO:LB:g=original
=21	=21	=21	=21	=21	=21	=21
*	*	*^	*	*	*	*
*Xped	*	*	*	*	*	*	*
!	!	!	!	!	!	!	!LO:HP:a
4r	4ryy	(4cc/	12cc\L	.	4cc\	We	<
.	.	.	12d\	.	.	.	.
.	.	.	12f\J	.	.	.	.
!LO:N:vis=2	!	!	!	!	!	!	!
4C/	[2.C\	4bn/	12bn\L	.	8bn\	mnie,	.
.	.	.	12d\	.	.	.	.
.	.	.	.	.	8b\	w o-	.
.	.	.	12f\J	.	.	.	.
4G/	.	4ee/	12ee\L	.	4ee\	-ko-	.
.	.	.	12g\	.	.	.	.
.	.	.	12b\J	.	.	.	.
4f/	.	4dd/)	12dd\L	.	8dd\	-ło	.
.	.	.	12g\	.	.	.	.
.	.	.	.	.	8dd\	Roz-	.
.	.	.	12b\J	.	.	.	.
*v	*v	*	*	*	*	*	*
*	*v	*v	*	*	*	*
=22	=22	=22	=22	=22	=22
!	!	!	!	!	!LO:DY:a:rj
12C\L]	4bn\ 4dd 4ff 4aa	.	2.aa\	-ko-	f
(12C\	.	.	.	.	.
12G\J	.	.	.	.	.
*	*tuplet	*	*	*	*
!	!LO:TX:t=P:problem=klamra łukowa z 3	!	!	!	!
12Bn\L	6r	.	.	.	.
12f\J)	.	.	.	.	.
12r	12g/	.	.	.	.
*	*Xtuplet	*	*	*	*
2r	(12bn\L	.	.	.	.
.	12dd\	.	.	.	.
.	12ff\J	.	.	.	.
.	12gg\L	.	4gg\	-szy	.
.	12ff\	.	.	.	.
.	12dd\J	.	.	.	.
=23	=23	=23	=23	=23	=23
*	*^	*	*	*	*
1r	12bn/L	2.ryy	>	2ff\	rój!	.
.	12g/	.	.	.	.	.
.	12f/J	.	.	.	.	.
.	12d/L	.	.	.	.	.
.	12Bn/	.	.	.	.	.
.	12G/J	.	.	.	.	.
.	12B/L	.	.	4r	.	.
.	12d/	.	.	.	.	.
.	12f/J	.	.	.	.	.
.	4g/)	12g\L	.	4g/	w o-	.
.	.	12d\	.	.	.	.
.	.	12f\J	]	.	.	.
!!LO:PB:g=original
=24	=24	=24	=24	=24	=24	=24
*^	*	*	*	*	*	*
!	!	!LO:TX:b:t=espress.	!LO:N:vis=3	!	!LO:TX:a:t=espress.	!	!
4r	4ryy	(2b-/	12b-\L	.	2b-\	-ko-	.
.	.	.	12c\	.	.	.	.
.	.	.	12e-X\J	.	.	.	.
!LO:N:vis=2	!	!	!	!	!	!	!
(<4C/	2.C\	.	12f#X\L	.	.	.	.
.	.	.	12e-\	.	.	.	.
.	.	.	12f#\J	.	.	.	.
!	!	!	!LO:N:vis=3	!	!	!	!
4F#X/	.	2a/)	12a\L	.	4a/	-ło	.
.	.	.	12e-\	.	.	.	.
.	.	.	12f#\J	.	.	.	.
4c/)	.	.	12e-\L	.	4a/	w o-	.
.	.	.	12f#\	.	.	.	.
.	.	.	12e-\J	.	.	.	.
=25	=25	=25	=25	=25	=25	=25	=25
!	!	!	!LO:N:vis=3	!	!	!	!
4r	4ryy	(2dd/	12dd\L	.	2dd\	-ko-	.
.	.	.	12d\	.	.	.	.
.	.	.	12fn\J	.	.	.	.
!LO:N:vis=2	!	!	!	!	!	!	!
(<4C/	2C\	.	12d\L	<	.	.	.
.	.	.	12f\	.	.	.	.
.	.	.	12d\J	.	.	.	.
!	!	!	!LO:N:vis=3	!	!	!	!
4G/	.	2b-/)	12b-\L	.	4b-\	-ło	.
.	.	.	12d\	.	.	.	.
.	.	.	12f\J	.	.	.	.
4B-/)	4ryy	.	12d\L	.	4f/	roz-	.
.	.	.	12f\	.	.	.	.
.	.	.	12d\J	.	.	.	.
=26	=26	=26	=26	=26	=26	=26	=26
!	!	!	!LO:N:vis=3	!	!	!	!LO:DY:a
4r	4ryy	(2.a/	12a\L	.	2.a/	-ko-	>
.	.	.	12c\	>	.	.	.
.	.	.	12f\J	.	.	.	.
(<2C/	2C\	.	12c\L	.	.	.	.
.	.	.	12f\	.	.	.	.
.	.	.	12c\J	.	.	.	.
.	.	.	12d\L	.	.	.	.
.	.	.	12c\	.	.	.	.
.	.	.	12d\J	.	.	.	.
4B-/)	4ryy	4g/	12e\L	.	4g/	-szy	]
.	.	.	12c\	.	.	.	.
.	.	.	12e\J)	]	.	.	.
*	*	*v	*v	*	*	*	*
!!LO:LB:g=original
=27	=27	=27	=27	=27	=27	=27
4F/	12F\L	8f/	.	2.f/	rój!	.
.	12A\	.	.	.	.	.
.	.	8r	.	.	.	.
.	12c#X\J	.	.	.	.	.
!	!	!LO:TX:b:t=dolce	!	!	!	!
4ryy	12f\L	(4aa\	.	.	.	.
.	12A\	.	.	.	.	.
.	12d\J	.	.	.	.	.
!	!LO:N:vis=3	!	!	!	!	!
2G/	12G\L	4ff\	.	.	.	.
.	12B-\	.	.	.	.	.
.	12d\J	.	.	.	.	.
.	12f\L	4dd\	.	4r	.	.
.	12B-\	.	.	.	.	.
.	12d\J	.	.	.	.	.
=28	=28	=28	=28	=28	=28	=28
!LO:N:vis=3	!	!	!	!	!	!
12G#X/L	2G#\	4cc\	.	1r	.	.
12B-/	.	.	.	.	.	.
12d/J	.	.	.	.	.	.
12f/L	.	4b-\	.	.	.	.
12B-/	.	.	.	.	.	.
12d/J	.	.	.	.	.	.
12A/L	4A\	4.a/)	<	.	.	.
12c#X/	.	.	.	.	.	.
12e/J	.	.	.	.	.	.
12G#/L	4G#\	.	.	.	.	.
12c#/	.	.	.	.	.	.
.	.	8a/	[	.	.	.
12e/J	.	.	.	.	.	.
=29	=29	=29	=29	=29	=29	=29
!LO:N:vis=3	!	!	!	!	!	!
12F#X/L	2F#\	(2a/	<	1r	.	.
12c/	.	.	.	.	.	.
12e-X/J	.	.	.	.	.	.
12c/L	.	.	.	.	.	.
12e-/	.	.	.	.	.	.
12c/J	.	.	.	.	.	.
!LO:N:vis=3	!	!	!	!	!	!
12G/L	2G\	4.g/	.	.	.	.
12B-/	.	.	.	.	.	.
12d/J	.	.	.	.	.	.
12B-/L	.	.	.	.	.	.
12d/	.	.	.	.	.	.
.	.	8f/	[	.	.	.
12B-/J	.	.	.	.	.	.
=30	=30	=30	=30	=30	=30	=30
*	*	*^	*	*	*	*
!	!	!	!LO:N:vis=3	!	!	!	!
4r	4ryy	2b-/	12b-\L	>	1r	.	.
.	.	.	12d\	.	.	.	.
.	.	.	12f\J	.	.	.	.
(2C/	2C\	.	12d\L	.	.	.	.
.	.	.	12f\	.	.	.	.
.	.	.	12d\J	.	.	.	.
.	.	2g/)	12e\L	]	.	.	.
.	.	.	12c\	.	.	.	.
.	.	.	12e\J	.	.	.	.
4B-/)	4ryy	.	12c\L	.	.	.	.
.	.	.	12e\	.	.	.	.
.	.	.	12c\J	.	.	.	.
*v	*v	*	*	*	*	*	*
!!LO:LB:g=original
=31	=31	=31	=31	=31	=31	=31
!	!	!	!	!	!	!LO:DY:a
8F\ 8A	(4a/	12a\L	pp	4a/	Na	p
.	.	12c\	.	.	.	.
8r	.	.	.	.	.	.
.	.	12f\J	.	.	.	.
(4B-\	4g/	12g\L	.	8g/	ty-	.
.	.	12c\	.	.	.	.
.	.	.	.	8g/	-siąc	.
.	.	12e\J	.	.	.	.
4A\	4cc/	12cc\L	<	4cc\	kwia-	.
.	.	12c\	.	.	.	.
.	.	12f\J	.	.	.	.
!	!	!	!	!	!	!LO:DY:a
4G\)	4b-/	12b-\L	.	8b-\	-tów	<
.	.	12d\	.	.	.	.
.	.	.	.	8b-\	Na	.
.	.	12f\J	.	.	.	.
=32	=32	=32	=32	=32	=32	=32
(4d\	4ff/	12ff\L	.	4ff\	lu-	.
.	.	12f\	.	.	.	.
.	.	12b-\J	.	.	.	.
4B-\	4dd/	12dd\L	.	4dd\	-dzi	[
.	.	12d\	.	.	.	.
.	.	12f\J	[	.	.	.
4G\	2b-/)	12b-\L	.	4.b-\	sto	.
.	.	12d\	.	.	.	.
.	.	12f\J	.	.	.	.
4G#X\)	.	12d\L	.	.	.	.
.	.	12f\	.	.	.	.
.	.	.	.	8b-\	Czyż	.
.	.	12d\J	.	.	.	.
=33	=33	=33	=33	=33	=33	=33
!	!	!	!	!	!	!LO:DY:a
(4A\	4a/	12a\L	.	4a/	jest	p
.	.	12c#X\	.	.	.	.
.	.	12e\J	.	.	.	.
4B-\	4g/	12g\L	<	4g/	wsród	.
.	.	12d\	.	.	.	.
.	.	12e\J	.	.	.	.
!	!	!	!	!	!	!LO:DY:a
4G\	4b-/	12b-\L	.	4b-\	świa-	<
.	.	12d\	.	.	.	.
.	.	12e\J	.	.	.	.
4A\)	4a/	12a\L	[	8a/	-tów	.
.	.	12d\	.	.	.	.
.	.	.	.	8a/	szczę-	[
.	.	12e\J	.	.	.	.
!!LO:LB:g=original
=34	=34	=34	=34	=34	=34	=34
(2B-\	4g/	12g\L	.	4g/	-śliw-	.
.	.	12d\	.	.	.	.
.	.	12e\J	>	.	.	.
.	4g#X/	12g#\L	.	8f/L	.	.
.	.	12d\	.	.	.	.
.	.	.	.	8e/J	-szy	.
.	.	12e\J	.	.	.	.
!	!	!LO:N:vis=3	!	!	!	!
4A\	[2a/	12a\L	.	2a/	kto?	.
.	.	12c#X\	]	.	.	.
.	.	12e\J	.	.	.	.
4G\)	.	12c#\L	.	.	.	.
.	.	12e\	.	.	.	.
.	.	12c#\J	.	.	.	.
*	*v	*v	*	*	*	*
=35	=35	=35	=35	=35	=35
*^	*	*	*	*	*
!LO:N:vis=3	!	!	!	!	!	!
12F/L	(2F\	8a/]	.	1r	.	.
12A/	.	.	.	.	.	.
.	.	8r	.	.	.	.
12d/J	.	.	.	.	.	.
12f/L	.	(4aa\	.	.	.	.
12A/	.	.	.	.	.	.
12d/J	.	.	.	.	.	.
!LO:N:vis=3	!	!	!	!	!	!
12G/L	2G\)	4ff\	.	.	.	.
12B-/	.	.	.	.	.	.
12d/J	.	.	.	.	.	.
12f/L	.	4dd\	.	.	.	.
12B-/	.	.	.	.	.	.
12d/J	.	.	.	.	.	.
=36	=36	=36	=36	=36	=36	=36
!LO:N:vis=3	!	!	!	!	!	!
12G#X/L	(2G#\	4cc\	.	1r	.	.
12B-/	.	.	.	.	.	.
12d/J	.	.	.	.	.	.
12f/L	.	4b-\	.	.	.	.
12B-/	.	.	.	.	.	.
12d/J	.	.	.	.	.	.
!LO:N:vis=3	!	!	!	!	!	!
12A/L	2A\)	2a/)	.	.	.	.
12c#X/	.	.	.	.	.	.
12g/J	.	.	.	.	.	.
12f/L	.	.	.	.	.	.
12c#/	.	.	.	.	.	.
12e/J	.	.	.	.	.	.
*v	*v	*	*	*	*	*
=37	=37	=37	=37	=37	=37
*	*^	*	*	*	*
!	!LO:TX:b:t=espress.	!LO:N:vis=3	!	!LO:TX:a:t=espress.	!	!LO:DY:a
(2A-X\	2b-/	12b-\L	p	4b-\	Kto	p
.	.	12d\	.	.	.	.
.	.	12f\J	.	.	.	.
.	.	12d\L	.	8b-\	wy-	.
.	.	12f\	.	.	.	.
.	.	.	.	8b-\	-znać	.
.	.	12d\J	.	.	.	.
!	!	!LO:N:vis=3	!	!	!	!
4G\)	2b-/	12b-\L	.	4dd-X\	mo-	.
.	.	12d-X\	.	.	.	.
.	.	12f\J	.	.	.	.
[4GG/	.	12d-\L	.	8dd-\	-że,	.
.	.	12f\	.	.	.	.
.	.	.	.	8dd-\	Jak	.
.	.	12d-\J	.	.	.	.
!!LO:LB:g=original
=38	=38	=38	=38	=38	=38	=38
(4GG/]	4b-/	12e-X\L	.	4.cc\	dzi-	.
.	.	12c\	.	.	.	.
.	.	12e-\J	.	.	.	.
4FF/	(4a/	12a\L	.	.	.	.
.	.	12c\	.	.	.	.
.	.	.	.	8f/	-siaj	.
.	.	12e-\J	.	.	.	.
4GG/	4b-/	12b-\L	.	4f/	ja,	.
.	.	12e-\	.	.	.	.
.	.	12f\J	.	.	.	.
4AA/)	4cc/)	12cc\L	.	4f/	Że	.
.	.	12e-\	.	.	.	.
.	.	12f\J	.	.	.	.
=39	=39	=39	=39	=39	=39	=39
!	!	!LO:N:vis=3	!LO:HP:b=2:t=cresc. molto	!	!	!LO:HP:a:t=cresc. molto
(4BB-/	(2dd/	12dd\L	<	4dd\	tę-	<
.	.	12d\	.	.	.	.
.	.	12f\J	.	.	.	.
4B-\	.	12d\L	.	4dd\	-tna	.
.	.	12f\	.	.	.	.
.	.	12d\J	.	.	.	.
!	!	!LO:N:vis=3	!	!	!	!
4A-X\	2cc/)	12cc\L	.	4ff\	Bo-	.
.	.	12d\	.	.	.	.
.	.	12f\J	.	.	.	.
4AA-X/	.	12d\L	.	8ff\	-że	.
.	.	12f\	.	.	.	.
.	.	.	.	8ff\	w swej	.
.	.	12d\J	.	.	.	.
=40	=40	=40	=40	=40	=40	=40
4GG/	(4bn/	12bn\L	.	4.ff\	pier-	.
.	.	12d\	.	.	.	.
.	.	12f\J	.	.	.	.
4C/	4a-X/)	12a-\L	.	.	.	.
.	.	12d\	>	.	.	.
.	.	.	.	8g/	-si	.
.	.	12f\J	.	.	.	.
!	!	!LO:N:vis=3	!	!	!	!
4BBn/)	[2g/	12g\L	.	4d/	ma.	.
.	.	12d\	.	.	.	.
.	.	12f\J	.	.	.	.
!	!	!	!	!	!	!LO:DY:a
4r	.	12d\L	.	4dd\	J	p
.	.	12f\	.	.	.	.
.	.	12d\J	]	.	.	.
*	*v	*v	*	*	*	*
!!LO:LB:g=original
=41	=41	=41	=41	=41	=41
*^	*	*	*	*	*
12r	2ryy	8f/ 8g]	.	4.dd\	szep-	.
12Bn\L	.	.	.	.	.	.
.	.	8r	.	.	.	.
12d\J	.	.	.	.	.	.
!	!	!LO:TX:b:t=dolce	!	!	!	!
12f\L	.	([4gg\	.	.	.	.
12d\	.	.	.	.	.	.
.	.	.	.	8g/	-ce	.
12f\J	.	.	.	.	.	.
*	*	*tuplet	*	*	*	*
!LO:N:vis=3	!	!LO:TUP:a	!	!	!	!
12B/L	2B\	12gg\L]	.	4g/	zdrój	.
12d/	.	12ff\	.	.	.	.
12f/J	.	12ee\J)	.	.	.	.
12d/L	.	8dd\	.	4r	.	.
12f/	.	.	.	.	.	.
.	.	8r	.	.	.	.
12d/J	.	.	.	.	.	.
=42	=42	=42	=42	=42	=42	=42
!LO:N:vis=3	!	!	!	!	!	!
12c/L	2c\	4r	pp	8r	.	.
12e/	.	.	.	.	.	.
!	!	!	!	!	!	!LO:DY:a
.	.	.	.	8a/	J	pp
12g/J	.	.	.	.	.	.
12e/L	.	([4aa^\	.	8a/	szep-	.
12g/	.	.	.	.	.	.
.	.	.	.	8a/	-ce	.
12e/J	.	.	.	.	.	.
!LO:N:vis=3	!	!LO:TUP:a	!	!	!	!
12c#X/L	2c#\	12aa\L]	.	4.a/	zdrój,	.
12e/	.	12gg\	.	.	.	.
12g/J	.	12ff\J	.	.	.	.
12e/L	.	8ee\)	.	.	.	.
12g/	.	.	.	.	.	.
!	!	!	!	!	!	!LO:DY:a
.	.	8r	.	8a/	Jam	<[
12e/J	.	.	.	.	.	.
*v	*v	*	*	*	*	*
=43	=43	=43	=43	=43	=43
*	*^	*	*	*	*
*	*	*Xtuplet	*	*	*	*
8d\ 8f	4ryy	12r	.	2b-\	twój!	.
.	.	12a\L	.	.	.	.
8r	.	.	.	.	.	.
.	.	12b-\J	.	.	.	.
4r	(4gg/	12gg\L	.	.	.	.
.	.	12a\	.	.	.	.
.	.	12b-\J	.	.	.	.
!	!	!	!	!	!	!LO:DY:a
2r	4ff/	12ff\L	.	4r	.	<
.	.	12a\	.	.	.	.
.	.	12b-\J	.	.	.	.
!	!	!	!	!	!	!LO:DY:a
.	4dd/	12dd\L	.	4b-\	jam	[ f
.	.	12f\	.	.	.	.
.	.	12b-\J	.	.	.	.
!!LO:LB:g=original
=44	=44	=44	=44	=44	=44	=44
4r	4cc/	12cc\L	.	2.ff^\	twój!	.
.	.	12d\	.	.	.	.
.	.	12f\J	.	.	.	.
(4GG/	4b-/	12b-\L	>	.	.	.
.	.	12dd\	.	.	.	.
.	.	12ff\J	.	.	.	.
4BB-/	4a/	12a\L	.	.	.	.
.	.	12d\	.	.	.	.
.	.	12f\J	.	.	.	.
4D\)	4g/)	12g\L	]	4r	.	.
.	.	12B-\	.	.	.	.
.	.	12f\J	.	.	.	.
=45	=45	=45	=45	=45	=45	=45
*^	*	*	*	*	*	*
!	!	!	!	!	!	!	!LO:DY:a
4C/	[2C\	4a/	12a\L	p	4a/	A	p
.	.	.	12c\	.	.	.	.
.	.	.	12f\J	.	.	.	.
!	!	!	!	!	!	!	!LO:HP:a:t=cresc. passione
4B-/	.	4g/	12g\L	.	8g/	na	<
.	.	.	12c\	.	.	.	.
.	.	.	.	.	8g/	o-	.
.	.	.	12e\J	.	.	.	.
4A/	2C\_	4cc/	12cc\L	.	4cc\	-ko-	.
.	.	.	12c\	.	.	.	.
.	.	.	12f\J	.	.	.	.
4G/	.	4b-/	12b-\L	.	8b-\	-ło	.
.	.	.	12d\	.	.	.	.
.	.	.	.	.	8b-\	Roz-	.
.	.	.	12f\J	.	.	.	.
*	*	*v	*v	*	*	*	*
=46	=46	=46	=46	=46	=46	=46
*ped	*	*	*	*	*	*
12C/L	12C\]	4e-X/ 4b- 4ee-X	<	4.ee-X\	-ko-	.
12C/	[6C\	.	.	.	.	.
[<12F#X/J	.	.	.	.	.	.
2C\] 2F#] 2c	4ryy	12r	[	.	.	.
.	.	(12e-X/L	.	.	.	.
.	.	.	.	8a/	-szy	.
.	.	12f#X/J	.	.	.	.
.	2ryy	12a/L	>	2a/	rój!	.
.	.	12cc/	.	.	.	.
.	.	12a/J	.	.	.	.
4r	.	12f#/L	.	.	.	.
.	.	12e-/	.	.	.	.
*Xped	*	*	*	*	*	*
.	.	12c/J)	]	.	.	.
=47	=47	=47	=47	=47	=47	=47
*	*	*^	*	*	*	*
!	!	!	!	!	!	!	!LO:DY:a
4r	4ryy	4cc/	12cc\L	.	4cc\	A	<
.	.	.	12d\	.	.	.	.
.	.	.	12f\J	.	.	.	.
!LO:N:vis=2	!	!	!	!	!	!	!
(4C/	2.C\	4bn/	12bn\L	.	8bn\	na	.
.	.	.	12d\	.	.	.	.
.	.	.	.	.	8b\	o-	.
.	.	.	12f\J	.	.	.	.
4G/	.	4ee/	12ee\L	.	4ee\	-ko-	.
.	.	.	12g\	.	.	.	.
.	.	.	12b\J	.	.	.	.
4f/)	.	4dd/	12dd\L	.	8dd\	-ło	.
.	.	.	12g\	.	.	.	.
.	.	.	.	.	8dd\	Roz-	.
.	.	.	12b\J	.	.	.	.
*v	*v	*	*	*	*	*	*
*	*v	*v	*	*	*	*
!!LO:LB:g=original
=48	=48	=48	=48	=48	=48
*tuplet	*tuplet	*	*	*	*
*ped	*	*	*	*	*
!LO:TUP:a	!	!	!	!	!
12r	4bn\ 4dd 4ff 4aa	sfz	2.aa\	-ko-	.
(12C\L	.	.	.	.	.
12G\J	.	.	.	.	.
!LO:TUP:a	!	!	!	!	!
12Bn\L	6r	.	.	.	.
12f\J)	.	.	.	.	.
12r	12g/	.	.	.	.
*	*Xtuplet	*	*	*	*
2r	(12bn\L	.	.	.	.
.	12dd\	.	.	.	.
.	12ff\J	.	.	.	.
.	12gg\L	.	4gg\	-szy	.
.	12ff\	.	.	.	.
.	12dd\J	.	.	.	.
=49	=49	=49	=49	=49	=49
*	*^	*	*	*	*
1r	12bn/L	2.ryy	>	2ff\	rój	.
.	12g/	.	.	.	.	.
.	12f/J	.	.	.	.	.
.	12d/L	.	.	.	.	.
.	12Bn/	.	.	.	.	.
.	12G/J	.	.	.	.	.
.	12B/L	.	.	4r	.	.
.	12d/	.	.	.	.	.
.	12f/J)	.	]	.	.	.
.	4g^/	12g\L	.	4g/	W o-	.
.	.	12d\	.	.	.	.
.	.	12f\J	.	.	.	.
=50	=50	=50	=50	=50	=50	=50
*^	*	*	*	*	*	*
!	!	!LO:TX:b:t=espress.	!LO:N:vis=3	!	!	!	!LO:DY:a
4r	4ryy	2b-/	12b-\L	.	2b-X\	-ko-	<
.	.	.	12c\	.	.	.	.
.	.	.	12e-X\J	.	.	.	.
!LO:N:vis=2	!	!	!	!	!	!	!
(<4C/	2.C\	.	12f#X\L	.	.	.	.
.	.	.	12e-\	.	.	.	.
.	.	.	12f#\J	.	.	.	.
!	!	!	!LO:N:vis=3	!	!	!	!
4F#X/	.	2a/	12a\L	.	4a/	-ło	.
.	.	.	12e-\	.	.	.	.
.	.	.	12f#\J	.	.	.	.
4c/)	.	.	12e-\L	.	4a/	Roz-	.
.	.	.	12f#\	.	.	.	.
.	.	.	12e-\J	.	.	.	.
=51	=51	=51	=51	=51	=51	=51	=51
!	!	!	!LO:N:vis=3	!	!	!	!
4r	4ryy	2dd/	12dd\L	.	2dd\	-ko-	<
.	.	.	12d\	.	.	.	.
.	.	.	12fn\J	.	.	.	.
!LO:N:vis=2	!	!	!	!	!	!	!
(<4C/	2.C\	.	12d\L	.	.	.	.
.	.	.	12f\	.	.	.	.
.	.	.	12d\J	.	.	.	.
!	!	!	!LO:N:vis=3	!	!	!	!
4G/	.	2b-/	12b-\L	.	4b-\	-szy	.
.	.	.	12d\	.	.	.	.
.	.	.	12f\J	.	.	.	.
4B-/)	.	.	12d\L	.	4f/	roz-	.
.	.	.	12f\	.	.	.	.
.	.	.	12d\J	.	.	.	.
!!LO:LB:g=original
=52	=52	=52	=52	=52	=52	=52	=52
!	!	!	!LO:N:vis=3	!	!	!	!LO:DY:a
4r	4ryy	2a/	12a\L	.	2.a/	-ko-	>
.	.	.	12c\	.	.	.	.
.	.	.	12f\J	.	.	.	.
(<2C/	2.C\	.	12c\L	.	.	.	.
.	.	.	12f\	.	.	.	.
.	.	.	12c\J	.	.	.	.
.	.	4ryy	12d\L	.	.	.	.
.	.	.	12c\	.	.	.	.
.	.	.	12d\J	.	.	.	.
4B-/)	.	4g/	12e\L	.	4g/	-szy	]
.	.	.	12c\	.	.	.	.
.	.	.	12e\J	.	.	.	.
*	*	*v	*v	*	*	*	*
=53	=53	=53	=53	=53	=53	=53
*Xtuplet	*	*	*	*	*	*
12F\L	2ryy	8f/	.	2.f/	rój!	.
12A\	.	.	.	.	.	.
.	.	8r	.	.	.	.
12c#X\J	.	.	.	.	.	.
12f\L	.	(4aa\	p	.	.	.
12A\	.	.	.	.	.	.
12d\J	.	.	.	.	.	.
!LO:N:vis=3	!	!	!	!	!	!
12G/L	2G\	4ff\	.	.	.	.
12B-/	.	.	.	.	.	.
12d/J	.	.	.	.	.	.
12f/L	.	4dd\	.	4r	.	.
12B-/	.	.	.	.	.	.
12d/J	.	.	.	.	.	.
=54	=54	=54	=54	=54	=54	=54
!LO:N:vis=3	!	!	!	!	!	!
12G#X/L	2G#\	4cc\	.	1r	.	.
12B-/	.	.	.	.	.	.
12d/J	.	.	.	.	.	.
12f/L	.	4b-\	.	.	.	.
12B-/	.	.	.	.	.	.
12d/J	.	.	.	.	.	.
12A/L	4A\	4.a/)	.	.	.	.
12c#X/	.	.	.	.	.	.
12e/J	.	.	.	.	.	.
12G#/L	4G#\	.	.	.	.	.
12c#/	.	.	.	.	.	.
.	.	8a/	.	.	.	.
12e/J	.	.	.	.	.	.
=55	=55	=55	=55	=55	=55	=55
!LO:N:vis=3	!	!	!	!	!	!
12F#X/L	2F#\	2a/	<	1r	.	.
12cnX/	.	.	.	.	.	.
12e-X/J	.	.	.	.	.	.
12cny/L	.	.	.	.	.	.
12e-/	.	.	.	.	.	.
12c-yny/J	.	.	.	.	.	.
!LO:N:vis=3	!	!	!	!	!	!
12G/L	2G\	4.g/	.	.	.	.
12B-/	.	.	.	.	.	.
12d/J	.	.	.	.	.	.
12B-/L	.	.	.	.	.	.
12d/	.	.	.	.	.	.
.	.	8f/	[	.	.	.
12B-/J	.	.	.	.	.	.
!!LO:LB:g=original
=56	=56	=56	=56	=56	=56	=56
*	*	*^	*	*	*	*
!	!	!	!LO:N:vis=3	!LO:HP:a	!	!	!
4r	4ryy	2b-/	12b-\L	>	1r	.	.
.	.	.	12d\	.	.	.	.
.	.	.	12f\J	.	.	.	.
2C/	(>2.C^\	.	12d\L	.	.	.	.
.	.	.	12f\	.	.	.	.
.	.	.	12d\J	.	.	.	.
.	.	2g/	12e\L	.	.	.	.
.	.	.	12c\	.	.	.	.
.	.	.	12e\J	.	.	.	.
4B-/	.	.	12c\L	.	.	.	.
.	.	.	12e\	.	.	.	.
.	.	.	12c\J	]	.	.	.
*v	*v	*	*	*	*	*	*
=57	=57	=57	=57	=57	=57	=57
!	!	!LO:N:vis=3	!	!	!	!
8F\)	2f/	12f\L	.	1r	.	.
.	.	12B-\	.	.	.	.
8r	.	.	.	.	.	.
.	.	12d\J	.	.	.	.
4r	.	12c\L	.	.	.	.
.	.	12F\	.	.	.	.
.	.	12B-\J	.	.	.	.
!	!	!LO:N:vis=3	!	!	!	!
[2FF^/	2f/	12f\L	>	.	.	.
.	.	12B-\	.	.	.	.
.	.	12d\J	.	.	.	.
.	.	12c\L	.	.	.	.
.	.	12F\	.	.	.	.
.	.	[12B-\J	.	.	.	.
=58	=58	=58	=58	=58	=58	=58
4FF/]	(2.f/	2B-\] 2d\	.	1r	.	.
2.FF/	.	.	.	.	.	.
.	.	2B-\ 2d-X	.	.	.	.
.	4e/)	.	.	.	.	.
*	*v	*v	*	*	*	*
=59	=59	=59	=59	=59	=59
*ped	*	*	*	*	*
1FF: 1C: 1F:	1A: 1c: 1f: 1a:	pp	1r	.	.
*Xped	*	*	*	*	*
==	==	==	==	==	==
*-	*-	*-	*-	*-	*-
!!!system-decoration: s1[(s2,s3)]
!!!RDF**kern: > = above
!!!RDF**kern: < = below
!!!RDF**dynam: > = dim.
!!!ENC: Anastazja Marusiak
!!!END: 2022-03-07
!!!ENC: Leszek Kubiak
!!!END: 2022-03-11
